_icons/SVG/561-sigilyph-shiny.svg

<svg xmlns="http://www.w3.org/2000/svg" viewBox="0 0 32 32"><title>561-sigilyph-shiny</title><path d="M9.48275,18.13336v-.811c-1.41588.18515-2.765.34744-2.83849.07278C6.56091,17.07808,9.14483,15.69,10.169,15.69c.45229,0,.58724.60532.49908,1.86113h.88377l.14557.93576H10.64725c.18084,1.15569.23914,1.82993-.208,2.06907a6.60235,6.60235,0,0,1-3.70146.36391c.21507-.33992,1.05549-.74463,2.74491-1.23729l-.0312-.53026c-.83911.24337-2.68918.24337-2.85927-.16636C6.68511,18.66386,8.34408,18.1434,9.48275,18.13336Z" style="fill:#373f3f"/><path d="M14.91669,21.05505v1.18433a3.34823,3.34823,0,0,0,1.07361.16687L16,22.40558V21.05505Z" style="fill:#dadddc"/><path d="M11.77582,15.24768a4.62615,4.62615,0,0,0-.434,1.49042l1.0332.86609L14,16.41669l2,1.1875V16.0011A10.10668,10.10668,0,0,1,11.77582,15.24768Z" style="fill:#876f5d"/><path d="M14,16.41669l-1.625,1.1875-1.0332-.86609c-.009.08-.00977.1626-.0149.24377l1.04065.87232,1.625-1.1875,2,1.1875H16v-.25Z" style="fill:#edeeee"/><path d="M15.99255,17.85419l-2-1.1875-1.625,1.1875-1.04065-.87232c-.00494.07868-.0144.156-.0144.23615a4.65713,4.65713,0,0,0,.33,1.70105l1.11248.93255,1.44965-1.05938,1.78418,1.05938H16V17.85419Z" style="fill:#373f3f"/><path d="M15.98883,19.85162l-1.78418-1.05938L12.755,19.85162l-1.11248-.93255a4.67443,4.67443,0,0,0,.21881.45666l.89178.74756,1.44965-1.05939,1.78418,1.05939H16v-.27167Z" style="fill:#edeeee"/><path d="M15.98694,20.12329,14.20276,19.0639l-1.44965,1.05939-.89178-.74756A4.66358,4.66358,0,0,0,16,21.90552V20.12329Z" style="fill:#876f5d"/><path d="M12.28448,14.39691a4.79632,4.79632,0,0,0-.50866.85077A10.10668,10.10668,0,0,0,16,16.0011V14.93677A11.503,11.503,0,0,1,12.28448,14.39691Z" style="fill:#373f3f"/><path d="M12.85071,13.76709a4.82831,4.82831,0,0,0-.56623.62982A11.503,11.503,0,0,0,16,14.93677V14.1347A12.67505,12.67505,0,0,1,12.85071,13.76709Z" style="fill:#e3e5e5"/><path d="M12.85071,13.76709A12.67505,12.67505,0,0,0,16,14.1347V12.53052A4.65461,4.65461,0,0,0,12.85071,13.76709Z" style="fill:#d9f07d"/><circle cx="12.90442" cy="18.62493" r="0.77075" style="fill:#edeeee"/><circle cx="12.90442" cy="18.62493" r="0.43268" style="fill:#f79654"/><path d="M12.13367,32c.17315-.68457.33362-1.3634.46985-2.03125h-.9928C11.761,30.65057,11.93848,31.327,12.13367,32Z" style="fill:#f79654"/><path d="M14.875,32a19.09879,19.09879,0,0,0,.45355-2.03125h-.92718C14.54431,30.63525,14.70648,31.31543,14.875,32Z" style="fill:#f79654"/><path d="M11.61072,29.96875h.9928q.12276-.602.20935-1.1875H11.3866Q11.48154,29.37836,11.61072,29.96875Z" style="fill:#c23734"/><path d="M14.40137,29.96875h.92718c.06452-.38892.10956-.78613.14472-1.1875H14.17273C14.24017,29.1709,14.31494,29.56567,14.40137,29.96875Z" style="fill:#c23734"/><path d="M14.17273,28.78125h1.30054c.0332-.37878.04974-.76465.05261-1.15625H14.01013C14.05182,28.00159,14.10425,28.38574,14.17273,28.78125Z" style="fill:#f79654"/><path d="M15.9903,22.40625a3.34823,3.34823,0,0,1-1.07361-.16687v.30231L11.3125,24.75a12.50037,12.50037,0,0,0-.0639,2.875h1.68878a9.00555,9.00555,0,0,0-.033-1.83331l1.13727-.725a8.62184,8.62184,0,0,0-.03156,2.55835h1.51575a13.83613,13.83613,0,0,0-.40088-3.41669L16,23.5V22.40558Z" style="fill:#cbeb6b"/><path d="M11.3866,28.78125h1.42627c.05865-.39319.09759-.77747.12451-1.15625H11.2486C11.282,28.01288,11.32581,28.39874,11.3866,28.78125Z" style="fill:#f79654"/><path d="M4.055,5.38287a6.59879,6.59879,0,0,0-2.78173-.231A5.16344,5.16344,0,0,0,3.9342,7.24469,4.29,4.29,0,0,1,4.055,5.38287Z" style="fill:#fca15e"/><path d="M5.39026,5.7934C4.93292,5.627,4.48865,5.49469,4.055,5.38287A4.29,4.29,0,0,0,3.9342,7.24469c.43695.19843.90839.38464,1.4021.558A4.33239,4.33239,0,0,1,5.39026,5.7934Z" style="fill:#cf3c35"/><path d="M5.39026,5.7934a4.33239,4.33239,0,0,0-.054,2.00927c.41913.14716.84845.28833,1.29267.41632a3.9508,3.9508,0,0,1,.04266-1.90716C6.24152,6.118,5.81323,5.94727,5.39026,5.7934Z" style="fill:#fca15e"/><path d="M7.5,13.0625a2.1029,2.1029,0,0,0,1.65021.45081,1.97255,1.97255,0,0,1-.36493-1.00922A2.01324,2.01324,0,0,0,7.5,13.0625Z" style="fill:#fca15e"/><path d="M9.41168,12.40735c-.221.02692-.42975.05963-.6264.09674a1.97255,1.97255,0,0,0,.36493,1.00922c.21551-.0055.43939-.01905.675-.04541A2.39293,2.39293,0,0,1,9.41168,12.40735Z" style="fill:#cf3c35"/><path d="M9.41168,12.40735A2.39293,2.39293,0,0,0,9.8252,13.4679c.24267-.02717.49127-.061.74749-.10553a2.89706,2.89706,0,0,1-.43957-1.02607C9.88458,12.35455,9.64423,12.379,9.41168,12.40735Z" style="fill:#fca15e"/><path d="M3.85632,1.2428A15.78621,15.78621,0,0,0,0,0,16.28374,16.28374,0,0,0,3.1496,2.93347,2.69638,2.69638,0,0,1,3.85632,1.2428Z" style="fill:#fca15e"/><path d="M5.15656,1.90259q-.64417-.35733-1.30024-.65979A2.69638,2.69638,0,0,0,3.1496,2.93347q.64873.48075,1.3678.95618A3.06369,3.06369,0,0,1,5.15656,1.90259Z" style="fill:#cf3c35"/><path d="M4.5174,3.88965c.50213.33264,1.02264.66382,1.56988.993A4.86968,4.86968,0,0,1,6.4541,2.67072c-.42792-.27729-.86194-.52643-1.29754-.76813A3.06369,3.06369,0,0,0,4.5174,3.88965Z" style="fill:#fca15e"/><path d="M3.42694,9.30194a4.32987,4.32987,0,0,0,2.38715,1.26648,5.73575,5.73575,0,0,1-.22339-1.381A4.6575,4.6575,0,0,0,3.42694,9.30194Z" style="fill:#fca15e"/><path d="M6.85425,9.39587c-.43982-.09344-.85877-.15905-1.26355-.20849a5.73575,5.73575,0,0,0,.22339,1.381c.4154.11823.86352.22626,1.33563.32312A4.91751,4.91751,0,0,1,6.85425,9.39587Z" style="fill:#cf3c35"/><path d="M6.85425,9.39587a4.91751,4.91751,0,0,0,.29547,1.49567c.33832.0694.68359.13538,1.03979.194a5.3485,5.3485,0,0,1-.24316-1.43274C7.57776,9.55731,7.213,9.47205,6.85425,9.39587Z" style="fill:#fca15e"/><path d="M13.32529,13.24188C12.7919,11.22,10.56168,7.03033,10.43747,5.8125a29.05306,29.05306,0,0,0-3.9834-3.14178,4.86968,4.86968,0,0,0-.36682,2.21191q1.249.75127,2.63147,1.49237c-.22852.17456.03772.67236.42609,1.25A21.03418,21.03418,0,0,0,6.6716,6.31183,3.9508,3.9508,0,0,0,6.62894,8.219c.95715.2757,1.95373.50739,2.91839.68726-.22754.12915.2995,1.13928.64069,1.38739.05835.01788.11981.036.17755.05377-.04565.02594-.10913-.004-.17755-.05377-.72131-.2207-1.48334-.4444-2.2417-.64087a5.3485,5.3485,0,0,0,.24316,1.43274c.81629.13428,1.666.24133,2.494.32074-.03161.40039.21021.60931.629.87585-.39142.00788-.79132.02576-1.17938.0542a2.89706,2.89706,0,0,0,.43957,1.02607c.42682-.07422.86621-.16785,1.30066-.27185.48755.1939.82038.9071,1.10694,1.16339a.28289.28289,0,0,0,.20721.098C13.49582,14.32343,13.4971,13.89319,13.32529,13.24188Z" style="fill:#e6f490"/><path d="M15.326,7.68555c-1.51575,1.88733-1.19037,2.89959-.22077,3.60559l-.40472,1.80279c0,.15119.63416.22962,1.2995.23719V4.2149C15.37506,4.2149,15.51538,6.28943,15.326,7.68555Z" style="fill:#373f3f"/><path d="M14.921,9.86743A1.092,1.092,0,0,0,16,10.95825V8.77667A1.092,1.092,0,0,0,14.921,9.86743Z" style="fill:#fefefe"/><path d="M15.4007,9.86743A.61234.61234,0,0,0,16,10.47852V9.25641A.61231.61231,0,0,0,15.4007,9.86743Z" style="fill:#f79654"/><path d="M22.51725,18.13336v-.811c1.41588.18515,2.765.34744,2.83849.07278C25.43909,17.07808,22.85517,15.69,21.831,15.69c-.45229,0-.58724.60532-.49908,1.86113h-.88377l-.14557.93576h1.05014c-.18084,1.15569-.23914,1.82993.208,2.06907a6.60235,6.60235,0,0,0,3.70146.36391c-.21507-.33992-1.05549-.74463-2.74491-1.23729l.0312-.53026c.83911.24337,2.68918.24337,2.85927-.16636C25.31489,18.66386,23.65592,18.1434,22.51725,18.13336Z" style="fill:#2b3332"/><path d="M17.08331,21.05505v1.18433a3.34823,3.34823,0,0,1-1.07361.16687L16,22.40558V21.05505Z" style="fill:#d1d4d4"/><path d="M20.22418,15.24768a4.62615,4.62615,0,0,1,.434,1.49042l-1.0332.86609L18,16.41669l-2,1.1875V16.0011A10.10668,10.10668,0,0,0,20.22418,15.24768Z" style="fill:#7f6858"/><path d="M18,16.41669l1.625,1.1875,1.0332-.86609c.009.08.00977.1626.0149.24377l-1.04065.87232-1.625-1.1875-2,1.1875H16v-.25Z" style="fill:#e3e5e5"/><path d="M16.00745,17.85419l2-1.1875,1.625,1.1875,1.04065-.87232c.00494.07868.0144.156.0144.23615a4.65713,4.65713,0,0,1-.33,1.70105l-1.11248.93255-1.44965-1.05938-1.78418,1.05938H16V17.85419Z" style="fill:#2b3332"/><path d="M16.01117,19.85162l1.78418-1.05938L19.245,19.85162l1.11248-.93255a4.67443,4.67443,0,0,1-.21881.45666l-.89178.74756L17.79724,19.0639l-1.78418,1.05939H16v-.27167Z" style="fill:#e3e5e5"/><path d="M16.01306,20.12329l1.78418-1.05939,1.44965,1.05939.89178-.74756A4.66358,4.66358,0,0,1,16,21.90552V20.12329Z" style="fill:#7f6858"/><path d="M19.71552,14.39691a4.79632,4.79632,0,0,1,.50866.85077A10.10668,10.10668,0,0,1,16,16.0011V14.93677A11.503,11.503,0,0,0,19.71552,14.39691Z" style="fill:#2b3332"/><path d="M19.14929,13.76709a4.82831,4.82831,0,0,1,.56623.62982A11.503,11.503,0,0,1,16,14.93677V14.1347A12.67505,12.67505,0,0,0,19.14929,13.76709Z" style="fill:#dadddc"/><path d="M19.14929,13.76709A12.67505,12.67505,0,0,1,16,14.1347V12.53052A4.65461,4.65461,0,0,1,19.14929,13.76709Z" style="fill:#cbeb6b"/><circle cx="19.09558" cy="18.62493" r="0.77075" style="fill:#e3e5e5"/><circle cx="19.09558" cy="18.62493" r="0.43268" style="fill:#ef8c48"/><path d="M19.86633,32c-.17315-.68457-.33362-1.3634-.46985-2.03125h.9928C20.239,30.65057,20.06152,31.327,19.86633,32Z" style="fill:#ef8c48"/><path d="M17.125,32a19.09879,19.09879,0,0,1-.45355-2.03125h.92718C17.45569,30.63525,17.29352,31.31543,17.125,32Z" style="fill:#ef8c48"/><path d="M20.38928,29.96875h-.9928q-.12276-.602-.20935-1.1875H20.6134Q20.51847,29.37836,20.38928,29.96875Z" style="fill:#b33533"/><path d="M17.59863,29.96875h-.92718c-.06452-.38892-.10956-.78613-.14472-1.1875h1.30054C17.75983,29.1709,17.68506,29.56567,17.59863,29.96875Z" style="fill:#b33533"/><path d="M17.82727,28.78125H16.52673c-.0332-.37878-.04974-.76465-.05261-1.15625h1.51575C17.94818,28.00159,17.89575,28.38574,17.82727,28.78125Z" style="fill:#ef8c48"/><path d="M16.0097,22.40625a3.34823,3.34823,0,0,0,1.07361-.16687v.30231L20.6875,24.75a12.50037,12.50037,0,0,1,.0639,2.875H19.06262a9.00555,9.00555,0,0,1,.033-1.83331l-1.13727-.725a8.62184,8.62184,0,0,1,.03156,2.55835H16.47412a13.83613,13.83613,0,0,1,.40088-3.41669L16,23.5V22.40558Z" style="fill:#bee758"/><path d="M20.6134,28.78125H19.18713c-.05865-.39319-.09759-.77747-.12451-1.15625H20.7514C20.718,28.01288,20.67419,28.39874,20.6134,28.78125Z" style="fill:#ef8c48"/><path d="M27.945,5.38287a6.59879,6.59879,0,0,1,2.78173-.231A5.16344,5.16344,0,0,1,28.0658,7.24469,4.29,4.29,0,0,0,27.945,5.38287Z" style="fill:#f79654"/><path d="M26.60974,5.7934c.45734-.16639.90161-.29871,1.33521-.41053a4.29,4.29,0,0,1,.12085,1.86182c-.43695.19843-.90839.38464-1.4021.558A4.33239,4.33239,0,0,0,26.60974,5.7934Z" style="fill:#c23734"/><path d="M26.60974,5.7934a4.33239,4.33239,0,0,1,.054,2.00927c-.41913.14716-.84845.28833-1.29267.41632a3.9508,3.9508,0,0,0-.04266-1.90716C25.75848,6.118,26.18677,5.94727,26.60974,5.7934Z" style="fill:#f79654"/><path d="M24.5,13.0625a2.1029,2.1029,0,0,1-1.65021.45081,1.97255,1.97255,0,0,0,.36493-1.00922A2.01324,2.01324,0,0,1,24.5,13.0625Z" style="fill:#f79654"/><path d="M22.58832,12.40735c.221.02692.42975.05963.6264.09674a1.97255,1.97255,0,0,1-.36493,1.00922c-.21551-.0055-.43939-.01905-.675-.04541A2.39293,2.39293,0,0,0,22.58832,12.40735Z" style="fill:#c23734"/><path d="M22.58832,12.40735a2.39293,2.39293,0,0,1-.41352,1.06055c-.24267-.02717-.49127-.061-.74749-.10553a2.89706,2.89706,0,0,0,.43957-1.02607C22.11542,12.35455,22.35577,12.379,22.58832,12.40735Z" style="fill:#f79654"/><path d="M28.14368,1.2428A15.78621,15.78621,0,0,1,32,0a16.28374,16.28374,0,0,1-3.1496,2.93347A2.69638,2.69638,0,0,0,28.14368,1.2428Z" style="fill:#f79654"/><path d="M26.84344,1.90259q.64417-.35733,1.30024-.65979a2.69638,2.69638,0,0,1,.70672,1.69067q-.64874.48075-1.3678.95618A3.06369,3.06369,0,0,0,26.84344,1.90259Z" style="fill:#c23734"/><path d="M27.4826,3.88965c-.50213.33264-1.02264.66382-1.56988.993a4.86968,4.86968,0,0,0-.36682-2.21191c.42792-.27729.86194-.52643,1.29754-.76813A3.06369,3.06369,0,0,1,27.4826,3.88965Z" style="fill:#f79654"/><path d="M28.57306,9.30194a4.32987,4.32987,0,0,1-2.38715,1.26648,5.73575,5.73575,0,0,0,.22339-1.381A4.6575,4.6575,0,0,1,28.57306,9.30194Z" style="fill:#f79654"/><path d="M25.14575,9.39587c.43982-.09344.85877-.15905,1.26355-.20849a5.73575,5.73575,0,0,1-.22339,1.381c-.4154.11823-.86352.22626-1.33563.32312A4.91751,4.91751,0,0,0,25.14575,9.39587Z" style="fill:#c23734"/><path d="M25.14575,9.39587a4.91751,4.91751,0,0,1-.29547,1.49567c-.33832.0694-.68359.13538-1.03979.194a5.3485,5.3485,0,0,0,.24316-1.43274C24.42224,9.55731,24.78705,9.47205,25.14575,9.39587Z" style="fill:#f79654"/><path d="M25.54587,2.67072a29.05306,29.05306,0,0,0-3.9834,3.14178C21.43826,7.03033,19.208,11.22,18.67465,13.24188c-.17181.65131-.17053,1.08155.13782,1.11a.28289.28289,0,0,0,.20721-.098c.28656-.25629.61939-.96949,1.10694-1.16339.43445.104.87384.19763,1.30066.27185a2.89706,2.89706,0,0,0,.43957-1.02607c-.38806-.02844-.788-.04632-1.17938-.0542.41882-.26654.66064-.47546.629-.87585.828-.07941,1.67767-.18646,2.494-.32074a5.3485,5.3485,0,0,0,.24316-1.43274c-.75836.19647-1.52039.42017-2.2417.64087-.06842.04974-.1319.07971-.17755.05377.05774-.01776.1192-.03589.17755-.05377.34119-.24811.86823-1.25824.64069-1.38739.96466-.17987,1.96124-.41156,2.91839-.68726a3.9508,3.9508,0,0,0-.04266-1.90716A21.03418,21.03418,0,0,0,22.85513,7.625c.38837-.57764.65461-1.07544.42609-1.25q1.3797-.7413,2.63147-1.49237A4.86968,4.86968,0,0,0,25.54587,2.67072Z" style="fill:#d9f07d"/><path d="M16.674,7.68555c1.51575,1.88733,1.19037,2.89959.22077,3.60559l.40472,1.80279c0,.15119-.63416.22962-1.2995.23719V4.2149C16.62494,4.2149,16.48462,6.28943,16.674,7.68555Z" style="fill:#2b3332"/><path d="M17.079,9.86743A1.092,1.092,0,0,1,16,10.95825V8.77667A1.092,1.092,0,0,1,17.079,9.86743Z" style="fill:#fefefe"/><path d="M16.5993,9.86743A.61234.61234,0,0,1,16,10.47852V9.25641A.61231.61231,0,0,1,16.5993,9.86743Z" style="fill:#ef8c48"/><path d="M13.20488,20.50759c.07745-.137.99184.38.91439.517A3.82033,3.82033,0,0,1,12.88086,22.104C12.63155,22.05342,12.95557,20.457,13.20488,20.50759Z" style="fill:#f7f7f7"/><path d="M18.65506,20.50759c-.07745-.137-.99184.38-.91439.517A3.82022,3.82022,0,0,0,18.97908,22.104C19.22839,22.05342,18.90437,20.457,18.65506,20.50759Z" style="fill:#edeeee"/></svg>

<svg xmlns="http://www.w3.org/2000/svg" viewBox="0 0 32 32"><path d="M9.483 18.133v-.81c-1.416.185-2.765.347-2.839.072-.083-.317 2.5-1.705 3.525-1.705.452 0 .587.605.5 1.861h.883l.145.936h-1.05c.181 1.156.24 1.83-.208 2.069a6.602 6.602 0 01-3.701.364c.215-.34 1.055-.745 2.745-1.237l-.032-.53c-.839.243-2.689.243-2.859-.167.093-.322 1.752-.843 2.89-.853z" fill="#373f3f"/><path d="M14.917 21.055v1.184a3.348 3.348 0 001.073.167H16v-1.35z" fill="#dadddc"/><path d="M11.776 15.248a4.626 4.626 0 00-.434 1.49l1.033.866L14 16.417l2 1.187v-1.603a10.107 10.107 0 01-4.224-.753z" fill="#876f5d"/><path d="M14 16.417l-1.625 1.187-1.033-.866c-.01.08-.01.163-.015.244l1.04.872 1.626-1.187 2 1.187H16v-.25z" fill="#edeeee"/><path d="M15.993 17.854l-2-1.187-1.625 1.187-1.041-.872c-.005.079-.014.156-.014.236a4.657 4.657 0 00.33 1.701l1.112.933 1.45-1.06 1.784 1.06H16v-1.998z" fill="#373f3f"/><path d="M15.989 19.852l-1.784-1.06-1.45 1.06-1.112-.933a4.674 4.674 0 00.218.457l.892.747 1.45-1.06 1.784 1.06H16v-.271z" fill="#edeeee"/><path d="M15.987 20.123l-1.784-1.06-1.45 1.06-.892-.747A4.664 4.664 0 0016 21.906v-1.783z" fill="#876f5d"/><path d="M12.284 14.397a4.796 4.796 0 00-.508.85 10.107 10.107 0 004.224.754v-1.064a11.503 11.503 0 01-3.716-.54z" fill="#373f3f"/><path d="M12.85 13.767a4.828 4.828 0 00-.566.63 11.503 11.503 0 003.716.54v-.802a12.675 12.675 0 01-3.15-.368z" fill="#e3e5e5"/><path d="M12.85 13.767a12.675 12.675 0 003.15.368V12.53a4.655 4.655 0 00-3.15 1.236z" fill="#d9f07d"/><circle cx="12.904" cy="18.625" r=".771" fill="#edeeee"/><circle cx="12.904" cy="18.625" r=".433" fill="#f79654"/><path d="M12.134 32c.173-.685.333-1.363.47-2.031h-.993c.15.682.327 1.358.523 2.031zm2.741 0a19.099 19.099 0 00.454-2.031H14.4c.143.666.305 1.346.474 2.031z" fill="#f79654"/><path d="M11.61 29.969h.994q.122-.602.209-1.188h-1.426q.095.597.224 1.188zm2.791 0h.928c.064-.39.11-.786.144-1.188h-1.3c.067.39.142.785.228 1.188z" fill="#c23734"/><path d="M14.173 28.781h1.3c.033-.379.05-.764.053-1.156H14.01c.042.377.094.76.163 1.156z" fill="#f79654"/><path d="M15.99 22.406a3.348 3.348 0 01-1.073-.167v.303l-3.604 2.208a12.5 12.5 0 00-.064 2.875h1.688a9.006 9.006 0 00-.033-1.833l1.138-.725a8.622 8.622 0 00-.032 2.558h1.516a13.836 13.836 0 00-.401-3.417L16 23.5v-1.094z" fill="#cbeb6b"/><path d="M11.387 28.781h1.426c.059-.393.097-.777.124-1.156H11.25c.033.388.077.774.138 1.156z" fill="#f79654"/><path d="M4.055 5.383a6.599 6.599 0 00-2.782-.231 5.163 5.163 0 002.661 2.093 4.29 4.29 0 01.121-1.862z" fill="#fca15e"/><path d="M5.39 5.793a14.391 14.391 0 00-1.335-.41 4.29 4.29 0 00-.12 1.862c.436.198.908.384 1.401.558a4.332 4.332 0 01.054-2.01z" fill="#cf3c35"/><path d="M5.39 5.793a4.332 4.332 0 00-.054 2.01c.42.147.849.288 1.293.416a3.95 3.95 0 01.043-1.907c-.43-.194-.859-.365-1.282-.519zm2.11 7.27a2.103 2.103 0 001.65.45 1.973 1.973 0 01-.365-1.009 2.013 2.013 0 00-1.285.559z" fill="#fca15e"/><path d="M9.412 12.407c-.221.027-.43.06-.627.097a1.973 1.973 0 00.365 1.01c.216-.006.44-.02.675-.046a2.393 2.393 0 01-.413-1.06z" fill="#cf3c35"/><path d="M9.412 12.407a2.393 2.393 0 00.413 1.06c.243-.026.491-.06.748-.105a2.897 2.897 0 01-.44-1.026c-.248.019-.489.043-.721.071zM3.856 1.243A15.786 15.786 0 000 0a16.284 16.284 0 003.15 2.933 2.696 2.696 0 01.706-1.69z" fill="#fca15e"/><path d="M5.157 1.903q-.645-.358-1.3-.66a2.696 2.696 0 00-.707 1.69q.648.481 1.367.957a3.064 3.064 0 01.64-1.987z" fill="#cf3c35"/><path d="M4.517 3.89c.503.332 1.023.663 1.57.993a4.87 4.87 0 01.367-2.212 21.949 21.949 0 00-1.297-.768 3.064 3.064 0 00-.64 1.987zm-1.09 5.412a4.33 4.33 0 002.387 1.266 5.736 5.736 0 01-.223-1.38 4.657 4.657 0 00-2.164.114z" fill="#fca15e"/><path d="M6.854 9.396a14.18 14.18 0 00-1.263-.209 5.736 5.736 0 00.223 1.381c.415.119.864.227 1.336.324a4.918 4.918 0 01-.296-1.496z" fill="#cf3c35"/><path d="M6.854 9.396a4.918 4.918 0 00.296 1.496c.338.069.683.135 1.04.194a5.348 5.348 0 01-.244-1.433 24.102 24.102 0 00-1.092-.257z" fill="#fca15e"/><path d="M13.325 13.242c-.533-2.022-2.763-6.212-2.888-7.43a29.053 29.053 0 00-3.983-3.141 4.87 4.87 0 00-.367 2.212q1.25.75 2.632 1.492c-.229.175.037.672.426 1.25a21.034 21.034 0 00-2.473-1.313 3.95 3.95 0 00-.043 1.907c.957.276 1.954.507 2.918.687-.227.13.3 1.14.641 1.388l.178.053c-.046.026-.11-.004-.178-.053a54.122 54.122 0 00-2.242-.641 5.348 5.348 0 00.243 1.433c.817.134 1.666.24 2.494.32-.031.4.21.61.63.876-.392.008-.792.026-1.18.054a2.897 2.897 0 00.44 1.026c.426-.074.866-.167 1.3-.271.488.193.82.907 1.107 1.163a.283.283 0 00.207.098c.309-.029.31-.459.138-1.11z" fill="#e6f490"/><path d="M15.326 7.686c-1.516 1.887-1.19 2.9-.22 3.605l-.405 1.803c0 .151.634.23 1.299.237V4.215c-.625 0-.485 2.074-.674 3.47z" fill="#373f3f"/><path d="M14.921 9.867A1.092 1.092 0 0016 10.958V8.777a1.092 1.092 0 00-1.079 1.09z" fill="#fefefe"/><path d="M15.4 9.867a.612.612 0 00.6.612V9.256a.612.612 0 00-.6.611z" fill="#f79654"/><path d="M22.517 18.133v-.81c1.416.185 2.765.347 2.839.072.083-.317-2.5-1.705-3.525-1.705-.452 0-.587.605-.5 1.861h-.883l-.145.936h1.05c-.181 1.156-.24 1.83.208 2.069a6.602 6.602 0 003.701.364c-.215-.34-1.055-.745-2.745-1.237l.031-.53c.84.243 2.69.243 2.86-.167-.093-.322-1.752-.843-2.89-.853z" fill="#2b3332"/><path d="M17.083 21.055v1.184a3.348 3.348 0 01-1.073.167H16v-1.35z" fill="#d1d4d4"/><path d="M20.224 15.248a4.626 4.626 0 01.434 1.49l-1.033.866L18 16.417l-2 1.187v-1.603a10.107 10.107 0 004.224-.753z" fill="#7f6858"/><path d="M18 16.417l1.625 1.187 1.033-.866c.01.08.01.163.015.244l-1.04.872-1.626-1.187-2 1.187H16v-.25z" fill="#e3e5e5"/><path d="M16.007 17.854l2-1.187 1.625 1.187 1.041-.872c.005.079.014.156.014.236a4.657 4.657 0 01-.33 1.701l-1.112.933-1.45-1.06-1.784 1.06H16v-1.998z" fill="#2b3332"/><path d="M16.011 19.852l1.784-1.06 1.45 1.06 1.112-.933a4.674 4.674 0 01-.218.457l-.892.747-1.45-1.06-1.784 1.06H16v-.271z" fill="#e3e5e5"/><path d="M16.013 20.123l1.784-1.06 1.45 1.06.892-.747A4.664 4.664 0 0116 21.906v-1.783z" fill="#7f6858"/><path d="M19.716 14.397a4.796 4.796 0 01.508.85 10.107 10.107 0 01-4.224.754v-1.064a11.503 11.503 0 003.716-.54z" fill="#2b3332"/><path d="M19.15 13.767a4.828 4.828 0 01.566.63 11.503 11.503 0 01-3.716.54v-.802a12.675 12.675 0 003.15-.368z" fill="#dadddc"/><path d="M19.15 13.767a12.675 12.675 0 01-3.15.368V12.53a4.655 4.655 0 013.15 1.236z" fill="#cbeb6b"/><circle cx="19.096" cy="18.625" r=".771" fill="#e3e5e5"/><circle cx="19.096" cy="18.625" r=".433" fill="#ef8c48"/><path d="M19.866 32a44.997 44.997 0 01-.47-2.031h.993c-.15.682-.327 1.358-.523 2.031zm-2.741 0a19.099 19.099 0 01-.454-2.031h.928A69.687 69.687 0 0117.125 32z" fill="#ef8c48"/><path d="M20.39 29.969h-.994q-.122-.602-.209-1.188h1.426q-.095.597-.224 1.188zm-2.791 0h-.928c-.064-.39-.11-.786-.144-1.188h1.3c-.067.39-.142.785-.228 1.188z" fill="#b33533"/><path d="M17.827 28.781h-1.3a14.61 14.61 0 01-.053-1.156h1.516c-.042.377-.094.76-.163 1.156z" fill="#ef8c48"/><path d="M16.01 22.406a3.348 3.348 0 001.073-.167v.303l3.605 2.208a12.5 12.5 0 01.063 2.875h-1.688a9.006 9.006 0 01.033-1.833l-1.138-.725a8.622 8.622 0 01.032 2.558h-1.516a13.836 13.836 0 01.401-3.417L16 23.5v-1.094z" fill="#bee758"/><path d="M20.613 28.781h-1.426a15.028 15.028 0 01-.124-1.156h1.688a15.85 15.85 0 01-.138 1.156z" fill="#ef8c48"/><path d="M27.945 5.383a6.599 6.599 0 012.782-.231 5.163 5.163 0 01-2.661 2.093 4.29 4.29 0 00-.121-1.862z" fill="#f79654"/><path d="M26.61 5.793c.457-.166.901-.298 1.335-.41a4.29 4.29 0 01.12 1.862c-.436.198-.908.384-1.401.558a4.332 4.332 0 00-.054-2.01z" fill="#c23734"/><path d="M26.61 5.793a4.332 4.332 0 01.054 2.01c-.42.147-.849.288-1.293.416a3.95 3.95 0 00-.043-1.907c.43-.194.859-.365 1.282-.519zm-2.11 7.27a2.103 2.103 0 01-1.65.45 1.973 1.973 0 00.365-1.009 2.013 2.013 0 011.285.559z" fill="#f79654"/><path d="M22.588 12.407c.221.027.43.06.627.097a1.973 1.973 0 01-.365 1.01 7.837 7.837 0 01-.675-.046 2.393 2.393 0 00.413-1.06z" fill="#c23734"/><path d="M22.588 12.407a2.393 2.393 0 01-.413 1.06 12.42 12.42 0 01-.748-.105 2.897 2.897 0 00.44-1.026c.248.019.489.043.721.071zm5.556-11.164A15.786 15.786 0 0132 0a16.284 16.284 0 01-3.15 2.933 2.696 2.696 0 00-.706-1.69z" fill="#f79654"/><path d="M26.843 1.903q.645-.358 1.3-.66a2.696 2.696 0 01.707 1.69q-.648.481-1.367.957a3.064 3.064 0 00-.64-1.987z" fill="#c23734"/><path d="M27.483 3.89c-.503.332-1.023.663-1.57.993a4.87 4.87 0 00-.367-2.212c.428-.278.862-.527 1.297-.768a3.064 3.064 0 01.64 1.987zm1.09 5.412a4.33 4.33 0 01-2.387 1.266 5.736 5.736 0 00.223-1.38 4.657 4.657 0 012.164.114z" fill="#f79654"/><path d="M25.146 9.396c.44-.094.859-.16 1.263-.209a5.736 5.736 0 01-.223 1.381c-.415.119-.864.227-1.336.324a4.918 4.918 0 00.296-1.496z" fill="#c23734"/><path d="M25.146 9.396a4.918 4.918 0 01-.296 1.496c-.338.069-.683.135-1.04.194a5.348 5.348 0 00.244-1.433c.368-.096.733-.181 1.092-.257z" fill="#f79654"/><path d="M25.546 2.67a29.053 29.053 0 00-3.984 3.143c-.124 1.217-2.354 5.407-2.887 7.429-.172.651-.17 1.081.137 1.11a.283.283 0 00.208-.098c.286-.256.62-.97 1.107-1.164.434.104.873.198 1.3.272a2.897 2.897 0 00.44-1.026 22.46 22.46 0 00-1.18-.054c.42-.266.661-.475.63-.876.827-.08 1.677-.186 2.493-.32a5.348 5.348 0 00.244-1.433c-.759.196-1.52.42-2.242.64-.068.05-.132.08-.178.054l.178-.053c.341-.249.868-1.259.64-1.388.965-.18 1.962-.411 2.919-.687a3.95 3.95 0 00-.043-1.907 21.034 21.034 0 00-2.473 1.313c.388-.578.655-1.075.426-1.25q1.38-.741 2.632-1.492a4.87 4.87 0 00-.367-2.212z" fill="#d9f07d"/><path d="M16.674 7.686c1.516 1.887 1.19 2.9.22 3.605l.405 1.803c0 .151-.634.23-1.299.237V4.215c.625 0 .485 2.074.674 3.47z" fill="#2b3332"/><path d="M17.079 9.867A1.092 1.092 0 0116 10.958V8.777a1.092 1.092 0 011.079 1.09z" fill="#fefefe"/><path d="M16.6 9.867a.612.612 0 01-.6.612V9.256a.612.612 0 01.6.611z" fill="#ef8c48"/><path d="M13.205 20.508c.077-.137.992.38.914.517a3.82 3.82 0 01-1.238 1.079c-.25-.05.075-1.647.324-1.596z" fill="#f7f7f7"/><path d="M18.655 20.508c-.077-.137-.992.38-.914.517a3.82 3.82 0 001.238 1.079c.25-.05-.075-1.647-.324-1.596z" fill="#edeeee"/></svg>
